svg/thermometer_check.svg

<svg xmlns="http://www.w3.org/2000/svg" viewBox="0 0 24 24"><path d="M10 13V5c0-1.66-1.34-3-3-3S4 3.34 4 5v8c-2.21 1.66-2.66 4.79-1 7s4.79 2.66 7 1 2.66-4.79 1-7a4.7 4.7 0 0 0-1-1M7 4c.55 0 1 .45 1 1v3H6V5c0-.55.45-1 1-1m9.25 11.16-2.75-3L14.66 11l1.59 1.59L19.84 9 21 10.41z"/></svg>

<svg xmlns="http://www.w3.org/2000/svg" id="mdi-thermometer-check" viewBox="0 0 24 24"><path d="M10 13V5C10 3.34 8.66 2 7 2S4 3.34 4 5V13C1.79 14.66 1.34 17.79 3 20S7.79 22.66 10 21 12.66 16.21 11 14C10.72 13.62 10.38 13.28 10 13M7 4C7.55 4 8 4.45 8 5V8H6V5C6 4.45 6.45 4 7 4M16.25 15.16L13.5 12.16L14.66 11L16.25 12.59L19.84 9L21 10.41L16.25 15.16" /></svg>
